X:1
T:Title
%%score { 1 | ( 2 3 ) }
L:1/8
Q:1/4=100
M:2/4
K:G
V:1 treble nm="Grand Piano"
V:2 bass 
V:3 bass 
V:1
 [B,G]A B2 | [B,G]A B2 | [FA][EG] [FA][GB] | [Ac][GB] [FA]2 | [DG]3 [DF] | EF [G,DG]2 | %6
w: J.~Ingalls * *||||||
 [CEA]2 [A,DF]2 | [B,DG]4 | [B,G]A B2 | [B,G]A B2 | [FA][EG] [FA][GB] | [Ac][GB] [FA]2 | %12
w: ||||||
 [DG]3 [DF] | EF [G,DG]2 | [CEA]2 [A,DF]2 | [B,DG]4 | d2 d>e | d3 B | G2 AB | cB [DA]2 | %20
w: ||||||||
 [Dd]3 [Ge] | [Gd]3 [DB] | [DG]2 [DB]2 | [DA]4 | [B,G]A B2 | [B,G]A B2 | [FA][EG] [FA][GB] | %27
w: |||||||
 [Ac][GB] [FA]2 | [DG]3 [DF] | EF [G,DG]2 | [CEA]2 [A,DF]2 |[M:6/4] .[B,DG]6 z6 |] %32
w: |||||
V:2
 z D [G,G]2 | z D [G,G]2 | [D,D]2 [D,D]2 | [D,D]2 [D,D]2 | [B,,G,]3 [B,,G,] | [C,G,C]2 B,,2 | %6
 C,2 D,2 | G,,4 | z[K:treble] D [G,G]2 | z D [G,G]2 | [D,D]2 [D,D]2 | [D,D]2 [D,D]2 | %12
 [B,,G,]3 [B,,G,] | [C,G,C]2 B,,2 | C,2 D,2 | G,,4 | [G,B,G]2 [G,B,G]>[G,DG] | [G,B,G]3 [G,D] | %18
 [G,B,D]2 [F,D]-[F,G,D] | .A,2 z2 | [B,,G,]3 [C,G,] | [B,,G,]3 [G,,G,] | [B,,G,]2 [G,,G,]2 | %23
 [D,F,]4 | z[K:treble] D [G,G]2 | z D [G,G]2 | [D,D]2 [D,D]2 | [D,D]2 [D,D]2 | [B,,G,]3 [B,,G,] | %29
 [C,G,C]2 B,,2 | C,2 D,2 |[M:6/4] .G,,6 z6 |] %32
V:3
 [G,,G,]2 z2 | [G,,G,]2 z2 | x4 | x4 | x4 | x4 | x4 | x4 | [G,,G,]2[K:treble] z2 | [G,,G,]2 z2 | %10
 x4 | x4 | x4 | x4 | x4 | x4 | x4 | x4 | z2 .A,2 | [D,D]-[D,G,D] [D,F,]2 | x4 | x4 | x4 | x4 | %24
 [G,,G,]2[K:treble] z2 | [G,,G,]2 z2 | x4 | x4 | x4 | x4 | x4 |[M:6/4] x12 |] %32

